-----BEGIN PGP SIGNATURE-----
Version: BCPG v1.70

iQIcBAEBCgAGBQJqhtUgAAoJEEYxW5yCr7ufv6oQAJWbM10R3XLGAonAzjGyUqFW
dWOUnxWaxCYSZYKZkrkf7y9OD7gWg7Jgo0OL+DSbfq5+XaN7AIuS0+cwDIDLBmhl
gmgmBNxz54EwsB/l4Q7k+mOSg2eLflKZACzgNpybclI7EBImfoSlV/nX4UC0BmW0
y8rm2cJVVy9IMYpiXfXzXSiroH22CG7SQGpXSQqzffTV6HdaAfM+Rc9KS9b4Z3d9
KArKPnJ0r5z2BKMPHCm44HRRO9PERN+fdgu/qa3rKm8pRUG6x+QYo/XUoBFxYHpX
QDN/jxqN0SRQa6swqq07S9rwjvKUwH1ZXQWdGF01lKFSINCm5Vefff3ATB42OHYI
MzRIccswu7UhCZHjNeUjr1ST6C/9G3hpsikhUin8qrJ5CJUnkcHvtpvdHUkpv24D
iLjHLZp4DYYBcIaSoy9EBlUdaF4noTIdG/aCjgrXiPOuB2ZzAWcrg6AJMrJoirlu
jAyJTFGRk8Z/GsoP2IwbvhJgPR3C+2pE+ncnkNZgVkIq6X/rtLM5nMzpzKaqa8xD
r6w+ghmzL7pmSzo1lvfwwpy6BB67Y0PwxVTxpMX3JsvCQohQ9V0ApHk/pcmp92OZ
ysbTYon/A7WDTiFt/G9sE2A5h3UHUbhzkc+XP/y3mLl4tjh7prCmR+7KOnO0COy/
nudhvT2v5JcrS3mr9nB/
=IXRF
-----END PGP SIGNATURE-----
