-----BEGIN PGP SIGNATURE-----
Version: BCPG v1.70

iQIcBAEBCgAGBQJqdEsMAAoJEEYxW5yCr7ufJjUQAITbPfrRKZBez6KFaxpTcgGw
hW88u4boTfIECnAoweuJG/lzbDp1V6JowdMNW9RJenTvedetlNO5djZVrOue8UeT
SjSplWz23YFzfiDGtolq1eRT7YAVYFqz5Iv+o/N/DyUsM2s3Q7/ssBQBvyVGnXb5
lsYK0153Kcyzqxpm5sYvhrR8aVN1KmyoN6xFEht5C+KW4Q7b7Izmy+HQCQvr+XN2
UzGc0P086Qs2HkLdaHE0HAT6Qs1jwfD1+cuNc8rt4kCw3s9Rq4xwIvlRbR4LgPdu
72MjGUBTi5qpuywbIIhQETWe29ywSRXtMGbf0UAesMb4bqvOrfmRwGoRDVyouf52
5NKuiCDGuonv5bDeTu3LH/XtxRNfJ7M1/t7tN/knU4gU7C2XrG1PdkDXvNzLwD4G
ZslNxGE/XPENFBc5UACOaC6ZF19UR9+wu8oaqjJGVmUt/36k3GEd+3yHxgjtLT2I
HiFmQxyROZ6wizUgeN2IOMl+ru8mpVogxLc7cH9N02U5H70Rpg4oEahXktx7Ypcz
ZPe3HtEdEXxAO2TZXILYCwLhygaNx0Z6E/oiKi62lKF8NYkMyEwlBWtPtCZfbB/N
M7d1s+KxtWJOPzLXYNpEAAC57euJz37KfHJ14x4TL3X3c71Bx7XTBmQjaRA9xAUd
1/Iqyba4JezYbugLh+i+
=2c5a
-----END PGP SIGNATURE-----
